X:1
T:Tantum ergo, op.60:30 - Ravanello
T:James Gibb editions
%%score { 1 | 2 } 3
L:1/8
Q:1/4=72
M:4/4
K:Ab
V:1 treble nm="Soprano I" snm="S"
V:2 treble 
V:3 treble nm="Alto" snm="A"
V:1
"^Tantum ergo Sacramentum, op.66 n.30""^Oreste Ravanello\n (1871-1938)""^adagio"!pp!!<(! A2 B2!<)! | %1
w: Tan- tum|
w: Ge- ni-|
 c4 d4 | c2!>(! B2 (A2!>)! B2) |"^," c4!<(! A2 B2 | (c2 e4)!<)! d2 |!>(! (c2 A2 B3) B!>)! | %6
w: er- go|Sa- cra- men\- *|tum ve- ne-|re\- * mur|cer\- * * nu-|
w: to- ri,|Ge- ni- to\- *|que laus et|ju\- * bi-|la\- * * ti-|
[M:4/4] c6 z2 |!f! e4 e4 | e2 (ee) =d2 e2 | (B3 A)"^," G2 e2- | e2 c2 (=B2 =d2- | %11
w: i:|et an-|ti- qu- um do- cu-|men\- * tum no\-|* vo ce\- *|
w: o,|sa- lus,|ho- nor, * vir- tus|quo\- * que sit|* et be\- *|
 d2 cG A_B) (c=d) |"^rall."[Q:1/4=69] e4[Q:1/4=65] =d4 | %13
w: * * * * * dat *|ri- tu-|
w: * * * * * ne\- *|di- cti-|
"^,"[Q:1/4=63] c4"^a tempo"!pp![Q:1/4=72] A2 B2 | c4 _d4 | c2 B2 (A2 B2) | c4 c2 B2 | A6 B2- | %18
w: i: prae- stet|fi- des|sup- ple- men\- *|tum sen- su-|um de\-|
w: o: pro- ce-|den- ti|ab u- tro\- *|que com- par|sit lau\-|
 B2 A2 (G2 c2) | !fermata!A4 :| z8 |!f! (c2 =d2) =e2 (f2- | f4 =e4) | !fermata!f8 |] %24
w: * fe- ctu\- *|i.||A\- * men, A\-||men.|
w: * da- ti\- *|o.|||||
V:2
!pp!!<(! F2 G2!<)! | A4 F4 | =E2!>(! G2 F4!>)! |"^," =E4 F2 G2 | (A3 G) F4 |!>(! A6 G2!>)! | %6
w: Tan- tum|er- go|Sa- cra- men-|tum ve- ne-|re\- * mur|cer- nu-|
w: Ge- ni-|to- ri,|Ge- ni- to-|que laus et|ju\- * bi-|la- ti-|
[M:4/4] A6 z2 |!f! c4 c4 | B2 (BB) A2 G2 | F4"^," E2 G2- | G2 A2 G2 G2 | (G4 F2) A2 | (G2 c4) =B2 | %13
w: i:|et an-|ti- qu- um do- cu-|men- tum no\-|* vo ce- dat,|ce\- * dat|ri\- * tu-|
w: o,|sa- lus,|ho- nor, * vir- tus|quo- que sit|* et be- ne-|di\- * *|* * cti-|
"^," c4!pp! F2 G2 | A4 F4 | =E2 G2 F4 | =E4 G2 G2 | A2 G2 F4- | F4 =E4 | !fermata!F4 :| %20
w: i: prae- stet|fi- des|sup- ple- men-|tum sen- su-|um de- fe\-|* ctu-|i.|
w: o: pro- ce-|den- ti|ab u- tro-|que com- par|sit lau- da\-|* ti-|o.|
!f! (F2 G2 A2) B2 | (c4 B2 A2 | G8) | !fermata!=A8 |] %24
w: A\- * * men,|A\- * *||men.|
w: ||||
V:3
!pp!!<(! F2 F2!<)! | F4 B,4 | C2!>(! C2 D4!>)! |"^," C4!<(! F2 E2 | A,4!<)! B,4 | %5
w: Tan- tum|er- go|Sa- cra- men-|tum ve- ne-|re- mur|
w: Ge- ni-|to- ri,|Ge- ni- to-|que laus et|ju- bi-|
!>(! (E2 F2) E4!>)! |[M:4/4] A,6 z2 |!f! A6 A2 | A2 GG F2 E2- | E2 !>!=D2"^," E2 C2- | %10
w: cer\- * nu-|i:|et an-|ti- qu- um do- cu\-|* men- tum no\-|
w: la\- * ti-|o,|sa- lus,|ho- nor, * vir- tus|* quo- que sit|
 C2 F2 G2 G2 | (E4 F4 | G4 G4 |"^," C4!pp! F2 F2 | F4 B,4 | C2 C2 D4 | C4 =E2 E2 | F2 _E2 D4 | C8 | %19
w: * vo ce- dat|ri\- *|* tu-|i: prae- stet|fi- des|sup- ple- men-|tum sen- su-|um de- fe-|ctu-|
w: * et be- ne-|di\- *|* cti-|o: pro- ce-|den- ti|ab u- tro-|que com- par|sit lau- da-|ti-|
 !fermata!F4 :| z4!f! F2 G2 | A4 G2) F2 | C8 | !fermata!F8 |] %24
w: i.|A\- *|* * men,|A-|men.|
w: o.|||||

